img/brand/brand3.svg

<svg width="90" height="55" viewBox="0 0 90 55" fill="none" xmlns="http://www.w3.org/2000/svg">
<path d="M21.7333 28.0346C20.6256 32.3273 16.1948 34.8761 11.7641 33.8029C7.3333 32.7297 4.70253 28.4371 5.81022 24.1444C6.91792 19.8517 11.3487 17.3029 15.7795 18.3761C20.141 19.4492 22.841 23.7419 21.7333 28.0346Z" fill="#F7931A"/>
<path d="M17.3718 24.9481C17.5102 23.8749 16.6795 23.3383 15.5718 22.9359L15.9179 21.5273L15.0179 21.3261L14.6718 22.7346C14.4641 22.6676 14.1871 22.6005 13.9795 22.6005L14.3256 21.192L13.4256 20.9907L13.0795 22.3993C12.8718 22.3322 12.6641 22.3322 12.5256 22.2651L11.2795 21.9968L11.0718 22.9359C11.0718 22.9359 11.7641 23.07 11.6948 23.07C12.041 23.1371 12.1102 23.4054 12.1102 23.6066L11.6948 25.2163H11.7641H11.6948L11.0718 27.4968C11.0025 27.631 10.9333 27.7651 10.6564 27.698L10.0333 27.5639L9.61792 28.57L10.7949 28.8383C11.0025 28.9054 11.2102 28.9724 11.4179 28.9724L11.0718 30.448L11.9718 30.6493L12.3179 29.2407C12.5948 29.3078 12.8025 29.3749 13.0102 29.4419L12.6641 30.8505L13.5641 31.0517L13.9102 29.5761C15.4333 29.8444 16.6102 29.7773 17.0948 28.3688C17.5102 27.2956 17.0948 26.692 16.2641 26.2224C16.8179 26.0883 17.3025 25.7529 17.3718 24.9481ZM15.3641 27.7651C15.0871 28.8383 13.2179 28.2346 12.5948 28.1005L13.0795 26.1554C13.7025 26.3566 15.641 26.6249 15.3641 27.7651ZM15.641 24.9481C15.3641 25.9542 13.841 25.4176 13.2871 25.2834L13.7025 23.5395C14.2564 23.6737 15.8487 23.942 15.641 24.9481Z" fill="white"/>
<path d="M29.6256 22.9358C30.3179 22.9358 30.8717 23.07 31.3564 23.2712C31.841 23.4724 32.2564 23.8078 32.5333 24.2102C32.8794 24.6127 33.0871 25.0822 33.2256 25.5517C33.3641 26.0883 33.4333 26.6249 33.4333 27.2285C33.4333 28.1675 33.2256 29.0395 32.8794 29.8444C32.5333 30.6492 32.0487 31.3871 31.4256 31.9907C30.8025 32.5944 30.1102 33.0639 29.2794 33.4663C28.4487 33.8017 27.5487 34.0029 26.5794 34.0029C26.441 34.0029 26.2333 34.0029 25.9564 34.0029C25.6794 34.0029 25.2641 33.9358 24.9179 33.9358C24.5025 33.8688 24.0871 33.8017 23.6717 33.6675C23.2564 33.5334 22.7718 33.3992 22.4256 33.198L26.0256 18.5761L29.2794 18.1066L27.9641 23.2712C28.241 23.1371 28.5179 23.07 28.7948 23.0029C29.0025 23.0029 29.2794 22.9358 29.6256 22.9358ZM26.9256 31.5883C27.4102 31.5883 27.8948 31.4541 28.3102 31.2529C28.7256 31.0517 29.141 30.7163 29.4179 30.3139C29.6948 29.9115 29.9718 29.509 30.1795 29.0395C30.3871 28.57 30.4564 28.0334 30.4564 27.4968C30.4564 26.8261 30.3179 26.3566 30.1102 25.9541C29.9025 25.6188 29.4871 25.4175 28.8641 25.4175C28.6564 25.4175 28.4487 25.4846 28.1025 25.4846C27.7564 25.5517 27.4794 25.6858 27.2718 25.8871L25.8871 31.387C25.9564 31.387 26.0256 31.387 26.0948 31.4541C26.1641 31.4541 26.2333 31.4541 26.3025 31.4541C26.3718 31.4541 26.441 31.4541 26.5794 31.4541C26.6487 31.5883 26.7871 31.5883 26.9256 31.5883Z" fill="white"/>
<path d="M36.8256 33.7346H33.7794L36.4102 23.137H39.5256L36.8256 33.7346ZM38.3487 21.8626C37.9333 21.8626 37.5179 21.7285 37.1717 21.4602C36.8256 21.1919 36.6179 20.8565 36.6179 20.3199C36.6179 20.0516 36.6871 19.7834 36.8256 19.5151C36.964 19.2468 37.1025 19.0456 37.3102 18.8443C37.5179 18.6431 37.7256 18.509 38.0025 18.4419C38.2794 18.3077 38.5564 18.3077 38.8333 18.3077C39.2487 18.3077 39.664 18.4419 40.0102 18.7102C40.3563 18.9785 40.564 19.3138 40.564 19.8504C40.564 20.1187 40.4948 20.387 40.3563 20.6553C40.2179 20.9236 40.0794 21.1248 39.8717 21.326C39.664 21.5273 39.4564 21.6614 39.1794 21.7285C38.9025 21.8626 38.6256 21.8626 38.3487 21.8626Z" fill="white"/>
<path d="M42.1564 20.5213L45.4103 20.0518L44.6487 23.2042H48.1103L47.4872 25.6859H44.0256L43.1256 29.3749C43.0564 29.7103 42.9872 29.9786 42.9872 30.2469C42.9872 30.5152 42.9872 30.7164 43.0564 30.9176C43.1256 31.1188 43.2641 31.253 43.4718 31.3871C43.6795 31.5213 44.0256 31.5213 44.3718 31.5213C44.7179 31.5213 44.9949 31.5213 45.341 31.4542C45.6179 31.3871 45.9641 31.3201 46.3102 31.1859L46.5179 33.4664C46.1025 33.6005 45.6179 33.7347 45.1333 33.8688C44.6487 34.003 44.0949 34.003 43.4025 34.003C42.4333 34.003 41.6718 33.8688 41.1872 33.6005C40.6333 33.3322 40.2872 32.9298 40.0795 32.4603C39.8718 31.9908 39.7333 31.4542 39.8026 30.8505C39.8026 30.2469 39.941 29.5762 40.0795 28.9054L42.1564 20.5213Z" fill="white"/>
<path d="M47.9025 29.509C47.9025 28.57 48.041 27.7651 48.3872 26.9602C48.6641 26.1554 49.1487 25.4176 49.7025 24.8139C50.2564 24.2102 50.9487 23.7407 51.7795 23.4054C52.6102 23.07 53.5102 22.8688 54.4794 22.8688C55.1025 22.8688 55.6564 22.9358 56.141 23.07C56.6256 23.2041 57.1102 23.3383 57.4564 23.5395L56.4179 25.8871C56.141 25.7529 55.8641 25.6859 55.5871 25.6188C55.3102 25.5517 54.8948 25.4846 54.4794 25.4846C53.441 25.4846 52.6102 25.82 52.0564 26.4907C51.4333 27.1615 51.1564 28.1005 51.1564 29.2407C51.1564 29.9115 51.2949 30.448 51.641 30.9176C51.9179 31.32 52.541 31.5212 53.3025 31.5212C53.7179 31.5212 54.0641 31.4541 54.4794 31.3871C54.8256 31.32 55.1718 31.1858 55.4487 31.0517L55.6564 33.4663C55.241 33.6005 54.8256 33.7346 54.341 33.8688C53.8564 34.0029 53.3025 34.07 52.6795 34.07C51.8487 34.07 51.0871 33.9358 50.4641 33.7346C49.841 33.4663 49.3564 33.198 49.0102 32.7285C48.5948 32.3261 48.3179 31.8566 48.1795 31.32C47.9718 30.7163 47.9025 30.1127 47.9025 29.509Z" fill="white"/>
<path d="M61.541 34.07C60.7794 34.07 60.1564 33.9358 59.6025 33.7346C59.0487 33.5334 58.6333 33.198 58.2871 32.7956C57.941 32.3932 57.6641 31.9236 57.4564 31.3871C57.2487 30.8505 57.1794 30.2468 57.1794 29.6432C57.1794 28.8383 57.3179 28.0334 57.5948 27.2285C57.8717 26.4237 58.2871 25.6858 58.7717 25.0822C59.3256 24.4114 59.9487 23.9419 60.7102 23.4724C61.4717 23.07 62.3717 22.8688 63.341 22.8688C64.0333 22.8688 64.7256 23.0029 65.2794 23.2041C65.8333 23.4054 66.2487 23.7407 66.664 24.1432C67.0102 24.5456 67.2871 25.0151 67.4948 25.5517C67.7025 26.0883 67.7717 26.692 67.7717 27.2956C67.7717 28.1005 67.6333 28.9053 67.3564 29.7102C67.0794 30.5151 66.7333 31.2529 66.1794 31.8566C65.6948 32.5273 65.0025 32.9968 64.241 33.4663C63.4794 33.8688 62.5794 34.07 61.541 34.07ZM63.1333 25.4175C62.6487 25.4175 62.3025 25.5517 61.9564 25.82C61.6102 26.0883 61.3333 26.4236 61.0563 26.759C60.8487 27.1615 60.641 27.5639 60.5025 28.0334C60.364 28.5029 60.2948 28.9053 60.2948 29.3749C60.2948 30.0456 60.4333 30.5822 60.641 30.9176C60.8487 31.32 61.264 31.4541 61.8179 31.4541C62.3025 31.4541 62.6487 31.32 62.9948 31.0517C63.341 30.7834 63.6179 30.448 63.8948 30.1127C64.1025 29.7102 64.3102 29.3078 64.4487 28.8383C64.5871 28.3688 64.6564 27.9663 64.6564 27.4968C64.6564 26.8261 64.5179 26.2895 64.3102 25.9541C64.1025 25.6188 63.6871 25.4175 63.1333 25.4175Z" fill="white"/>
<path d="M71.0949 33.7346H68.0487L70.6795 23.137H73.7949L71.0949 33.7346ZM72.5487 21.8626C72.1333 21.8626 71.7179 21.7285 71.3718 21.4602C71.0256 21.1919 70.8179 20.8565 70.8179 20.3199C70.8179 20.0516 70.8872 19.7834 71.0256 19.5151C71.1641 19.2468 71.3026 19.0456 71.5102 18.8443C71.7179 18.6431 71.9256 18.509 72.2026 18.4419C72.4795 18.3077 72.7564 18.3077 73.0333 18.3077C73.4487 18.3077 73.8641 18.4419 74.2102 18.7102C74.5564 18.9785 74.7641 19.3138 74.7641 19.8504C74.7641 20.1187 74.6949 20.387 74.5564 20.6553C74.4179 20.9236 74.2795 21.1248 74.0718 21.326C73.8641 21.5273 73.6564 21.6614 73.3795 21.7285C73.1026 21.8626 72.8256 21.8626 72.5487 21.8626Z" fill="white"/>
<path d="M75.941 23.6737C76.1487 23.6066 76.4256 23.5396 76.7025 23.4725C76.9794 23.4054 77.3256 23.3383 77.6717 23.2042C78.0179 23.1371 78.4333 23.07 78.8487 23.003C79.264 22.9359 79.7487 22.9359 80.3025 22.9359C81.8948 22.9359 83.0717 23.4054 83.6948 24.2774C84.3179 25.2164 84.3871 26.4237 84.041 28.0335L82.6564 33.7347H79.541L80.9256 28.1676C80.9948 27.8322 81.064 27.4969 81.1333 27.1615C81.2025 26.8261 81.2025 26.5579 81.1333 26.2896C81.064 26.0213 80.9256 25.82 80.7179 25.6859C80.5102 25.5518 80.2333 25.4847 79.8179 25.4847C79.4025 25.4847 78.9871 25.5518 78.5717 25.6188L76.5641 33.8018H73.4487L75.941 23.6737Z" fill="white"/>
</svg>

<svg width="90" height="55" viewBox="0 0 90 55" fill="none" xmlns="http://www.w3.org/2000/svg"><path d="M21.733 28.035c-1.107 4.292-5.538 6.841-9.969 5.768-4.43-1.073-7.061-5.366-5.954-9.659 1.108-4.292 5.539-6.841 9.97-5.768 4.361 1.073 7.061 5.366 5.953 9.659z" fill="#F7931A"/><path d="M17.372 24.948c.138-1.073-.692-1.61-1.8-2.012l.346-1.409-.9-.2-.346 1.408c-.208-.067-.485-.134-.693-.134l.347-1.409-.9-.201-.347 1.408c-.207-.067-.415-.067-.553-.134l-1.246-.268-.208.939s.692.134.623.134c.346.067.415.335.415.537l-.415 1.61h.07-.07l-.623 2.28c-.07.134-.139.268-.416.201l-.623-.134-.415 1.006 1.177.268c.207.067.415.134.623.134l-.346 1.476.9.201.346-1.408c.277.067.485.134.692.2l-.346 1.41.9.2.346-1.475c1.523.268 2.7.201 3.185-1.207.415-1.073 0-1.677-.83-2.147.553-.134 1.037-.47 1.107-1.274zm-2.008 2.817c-.277 1.073-2.146.47-2.77.335l.486-1.945c.623.202 2.561.47 2.284 1.61zm.277-2.817c-.277 1.006-1.8.47-2.354.335l.415-1.744c.554.135 2.147.403 1.939 1.41zm13.985-2.012c.692 0 1.246.134 1.73.335.485.201.9.537 1.177.94.346.402.554.871.693 1.34.138.537.207 1.074.207 1.678a6.57 6.57 0 01-.554 2.615 6.61 6.61 0 01-1.453 2.147 8.03 8.03 0 01-2.147 1.475 7.16 7.16 0 01-2.7.537h-.623c-.277 0-.692-.067-1.038-.067-.415-.067-.83-.134-1.246-.269-.416-.134-.9-.268-1.246-.469l3.6-14.622 3.253-.47-1.315 5.165c.277-.134.554-.201.83-.268.209 0 .485-.067.832-.067zm-2.7 8.652c.484 0 .969-.134 1.384-.335a2.93 2.93 0 001.108-.94c.277-.401.554-.804.762-1.273.207-.47.276-1.007.276-1.543 0-.67-.138-1.14-.346-1.543-.207-.335-.623-.537-1.246-.537-.208 0-.415.068-.762.068-.346.067-.623.2-.83.402l-1.385 5.5c.07 0 .139 0 .208.067h.484c.07.134.208.134.347.134zm9.9 2.147h-3.047l2.631-10.598h3.116l-2.7 10.598zm1.523-11.872c-.416 0-.831-.134-1.177-.403-.346-.268-.554-.604-.554-1.14 0-.268.07-.537.208-.805a2.41 2.41 0 01.484-.67c.208-.202.416-.336.692-.403.277-.134.554-.134.831-.134.416 0 .831.134 1.177.402.346.268.554.604.554 1.14 0 .269-.07.537-.208.805a2.4 2.4 0 01-.484.671 1.45 1.45 0 01-.693.402c-.276.135-.553.135-.83.135zm3.807-1.342l3.254-.47-.761 3.153h3.461l-.623 2.482h-3.461l-.9 3.689c-.07.335-.139.604-.139.872s0 .47.07.67c.069.202.207.336.415.47.207.134.554.134.9.134s.623 0 .969-.067c.277-.067.623-.134.97-.268l.207 2.28c-.416.134-.9.269-1.385.403-.484.134-1.038.134-1.73.134-.97 0-1.731-.134-2.216-.403-.554-.268-.9-.67-1.107-1.14-.208-.47-.347-1.006-.277-1.61 0-.603.138-1.274.277-1.945l2.076-8.384zm5.747 8.988c0-.939.138-1.744.484-2.549.277-.805.762-1.542 1.316-2.146.553-.604 1.246-1.073 2.076-1.409a7.16 7.16 0 012.7-.536 6.24 6.24 0 011.662.201c.485.134.97.268 1.315.47l-1.038 2.347c-.277-.134-.554-.201-.83-.268a4.962 4.962 0 00-1.109-.134c-1.038 0-1.869.335-2.423 1.006-.623.67-.9 1.61-.9 2.75 0 .67.139 1.207.485 1.677.277.402.9.603 1.662.603.415 0 .761-.067 1.176-.134a4.09 4.09 0 00.97-.335l.207 2.414c-.415.134-.83.269-1.315.403a6.244 6.244 0 01-1.662.201c-.83 0-1.592-.134-2.215-.335-.623-.269-1.108-.537-1.454-1.007a2.963 2.963 0 01-.83-1.408c-.208-.604-.277-1.207-.277-1.811zm13.638 4.561a5.542 5.542 0 01-1.938-.335c-.554-.202-.97-.537-1.316-.94a4.791 4.791 0 01-.83-1.408c-.208-.537-.278-1.14-.278-1.744 0-.805.139-1.61.416-2.415a7.21 7.21 0 011.177-2.146c.554-.67 1.177-1.14 1.938-1.61.762-.402 1.662-.603 2.631-.603.692 0 1.385.134 1.938.335.554.201.97.537 1.385.94.346.402.623.871.83 1.408.209.536.278 1.14.278 1.744 0 .805-.139 1.61-.416 2.414-.277.805-.623 1.543-1.177 2.147-.484.67-1.177 1.14-1.938 1.61-.762.402-1.662.603-2.7.603zm1.592-8.652c-.484 0-.83.134-1.177.402-.346.268-.623.604-.9.939-.207.402-.415.805-.553 1.274a4.5 4.5 0 00-.208 1.342c0 .67.138 1.207.346 1.543.208.402.623.536 1.177.536.485 0 .83-.134 1.177-.402.346-.269.623-.604.9-.94.208-.402.415-.804.554-1.274a4.53 4.53 0 00.207-1.341c0-.67-.138-1.207-.346-1.543-.207-.335-.623-.537-1.177-.537zm7.962 8.317h-3.046l2.63-10.598h3.116l-2.7 10.598zm1.454-11.872c-.416 0-.831-.134-1.177-.403-.346-.268-.554-.604-.554-1.14 0-.268.07-.537.208-.805.138-.268.277-.47.484-.67.208-.202.416-.336.693-.403.276-.134.553-.134.83-.134.416 0 .831.134 1.177.402.346.268.554.604.554 1.14 0 .269-.07.537-.208.805a2.41 2.41 0 01-.484.671 1.446 1.446 0 01-.693.402c-.276.135-.553.135-.83.135zm3.392 1.811c.208-.067.485-.134.761-.201.277-.068.624-.135.97-.269.346-.067.761-.134 1.177-.201.415-.067.9-.067 1.453-.067 1.593 0 2.77.47 3.393 1.341.623.94.692 2.147.346 3.756l-1.385 5.702h-3.115l1.385-5.567.207-1.006c.07-.336.07-.604 0-.872a.976.976 0 00-.415-.604c-.208-.134-.485-.201-.9-.201-.415 0-.83.067-1.246.134l-2.008 8.183H73.45l2.492-10.128z" fill="#fff"/></svg>
